X:1
T:Bach for Solo Flute (X)
T:Prélude
T:Bach for Solo Flute (XV)
T:Prélude from Suite No. III for Cello (BWV 1009) Transcription for Flute 
T:Johann Sebastian Bach (1685-1750)
T:Transcription by Felix Scharpf
T:twoflutes 2020 / Felix Scharpf / Johann_Sebastian_Bach_signature.svg-2.png
T:twoflutes 2020 / Felix Scharpf / Johann_Sebastian_Bach_signature.svg-2.png
T:twoflutes 2020 / Felix Scharpf / Johann_Sebastian_Bach_signature.svg-2.png
C:Johann Sebastian Bach
Z:twoflutes 2020 / Felix Scharpf / Johann_Sebastian_Bach_signature.svg-2.png
L:1/8
Q:1/4=90
M:3/4
K:C
V:1 treble nm="Flöte" snm="Fl."
V:1
!mf! c'(b/a/ g/f/e/d/) (c/G/).E/.G/ | C2- C/(D/E/F/ G/A/B/c/) | %2
!sfz! (!>!d/c/B/A/) (G/A/B/c/) (d/e/f/d/) |!sfz! (!>!e/f/e/d/) (c/d/e/f/) (g/a/b/c'/) | %4
!sfz! (!>!d'/c'/b/a/) (g/a/b/c'/) (d'/e'/f'/d'/) | (e'/f'/e'/d'/) .c'/(c'/b/a/ g/f/e/d/) | %6
 .c/(b/c'/d'/ e'/d'/c'/b/) (.a/.c'/.g/.c'/) | (^f/e/f/g/) (a/g/f/e/) (.d/.f/.c/.f/) | %8
 .B/(a/b/c'/ d'/c'/b/a/) (.g/.b/.^f/.b/) | (e/d/e/^f/) (g/f/e/d/) (.c/.e/.B/.e/) | %10
 .A/"_dim."(g/a/b/ c'/b/a/g/) .^f/.a/.e/.a/ | (d/c/d/e/) (^f/e/d/c/) (.B/.d/.A/.d/) | %12
"^A" .G/(d/e/^f/) (g/a/b/c'/) (d'/c'/b/a/) | (b/c'/d'/c'/) (b/a/g/a/) (b/a/g/=f/) | %14
!mp! .e/.g/(e/^c/) (A/B/c/d/) (e/f/g/e/) | (.f/.d'/.a/.f/) (d/e/f/g/) (a/b/c'/a/) | %16
 (.b/.d'/.b/.^g/) (e/^f/g/a/) (b/c'/d'/b/) |!mf! (c'/d'/c'/b/) (a/=f/e/d/) (c/B/A/G/) | %18
"_dim." (F/A/B/^c/) (d/e/f/d/) (!>!b/^g/)(a/d/) | .E/(B/d/a/) (^g/b/)(e/g/) (b/d'/).c'/.g/ | %20
!mp! a/!>!^d/(a/b/ a/)!>!d/(a/b/ a/)!>!d/(a/b/ | c'/)!>!e/(a/b/ c'/)!>!e/(a/b/ c'/)!>!e/(b/c'/ | %22
 d'/)!>!e/(b/c'/ d'/)!>!e/(b/c'/ d'/)b/(^g/^f/ | e/)!>!c'/(a/^g/ a/)!>!c'/(a/g/ a/)!>!c'/(a/^f/ | %24
 ^d/)!>!c'/(a/^g/ a/)!>!c'/(a/g/ a/)!>!c'/a/=f/ | =d/!>!b/(^g/^f/ g/)!>!b/(=f/e/ f/)!>!b/e/d/ | %26
"^B"!f! (c/A/).c/.e/ (c/A/).c/.e/ (a/c'/).a/.e/ | %27
!p! (c/"_cresc."A/).c/.e/ (c/A/).c/.e/ (a/c'/).a/.f/ | (d/B/).d/.g/ (d/B/).d/.g/ (b/d'/).b/.g/ | %29
!mf! f/"_dim."!>!B/(f/g/ f/)!>!B/(f/g/ f/).d'/.b/.g/ | %30
!mp! (e/c/)"_cresc.".e/.g/ (e/c/).e/.g/ (_b/d'/).b/.g/ | %31
!mf! (e/c/).e/.g/ (.e/c/).e/.g/ (c'/_b/a/g/) | .a/(f/e/f/ g/a/b/c'/ .d'/).a/.f/.d/ | %33
 .g/e/(d/e/ f/g/a/b/ .c'/).g/.e/.c/ | .f/!>!d/(f/g/ f/)!>!d/(f/g/ f/)!>!c/(f/g/ | %35
 f/)!>!B/(f/g/ f/)!>!A/(f/g/ f/)!>!G/(f/g/ | e/)G/(!>!C/G/ e/)G/(!>!C/G/ e/).d/.c/.B/ | %37
!mf! (!>!A/e/c'/)e/ (!>!A/e/c'/)e/ !>!A/.g/.f/.e/ | f/A/(!>!D/A/ f/)A/(!>!D/A/ f/).e/.d/.c/ | %39
 (!>!B/^f/d'/)f/ (!>!B/f/d'/)f/ !>!B/.a/.g/.f/ | g/B/(!>!E/B/ g/)B/(!>!E/B/ g/).=f/.e/.d/ | %41
"^C" !>!c/g/(e'/g/ !>!c/)g/(e'/g/ !>!c/)._b/.a/.g/ | a/c/(!>!F/c/ a/)c/(!>!F/c/ a/).g/.f/.e/ | %43
!mp! !>!d/a/(f'/a/ !>!d/)a/(f'/a/ !>!d/).a/.b/.c'/ | %44
"_cresc." !>!G/b/(f'/b/ !>!G/)b/(f'/b/ !>!G/)b/(f'/b/ | %45
!mf! !>!G/)c'/(e'/c'/ !>!G/)c'/(e'/c'/ !>!G/)c'/(e'/c'/ | %46
 !>!G/)c'/(d'/c'/ !>!G/)b/d'/b/ !>!G/a/(d'/a/ | %47
"_dim." !>!G/)b/(d'/b/ !>!G/)b/(g'/b/ !>!G/)b/(d'/b/ | %48
 !>!G/)b/(c'/b/ !>!G/)a/(c'/a/ !>!G/)g/(c'/g/ | !>!G/)a/(c'/a/ !>!G/)a/(f'/a/ !>!G/)a/(c'/a/ | %50
 !>!G/)a/(b/a/ !>!G/)g/(b/g/ !>!G/)f/(b/f/ | %51
"^D"!mp! !>!G/)g/(b/g/ !>!G/)g/(e'/g/"_cresc." !>!G/)g/(b/g/ | %52
 !>!G/)g/(a/g/ !>!G/)f/(a/f/ !>!G/)e/(a/e/ | !>!G/)f/(a/f/ !>!G/)f/(d'/f/ !>!G/)f/(a/f/ | %54
!mf! !>!G/)f/(b/f/ !>!G/)f/(d'/f/ !>!G/)f/(b/f/ | %55
"_dim." !>!G/)e/(c'/e/ !>!G/)e/(e'/e/ !>!G/)e/(c'/e/ | !>!G/)f/(b/f/ !>!G/)f/(d'/f/ !>!G/)f/(b/f/ | %57
!mp! !>!G/)_e/(c'/e/ !>!G/)e/(_e'/e/ !>!G/)e/(c'/e/ | %58
"_cresc." !>!G/)^f/(c'/f/ !>!G/)d/(c'/d/ !>!G/)=e/(c'/e/ | %59
 !>!G/)^f/(c'/f/ !>!G/)e/(c'/e/ !>!G/)f/(c'/f/ |!mf! !>!G/).g/.b/.a/ (g/=f/e/d/) (g/e/)(g/d/) | %61
!f! .g/!>!^c/(g/a/ g/)!>!c/(g/a/ g/)!>!c/(g/a/ | f/)!>!d/(a/g/) (f/e/d/=c/) (f/d/)(f/c/) | %63
!mp! .f/!>!B/(f/g/ f/)!>!B/(f/g/ f/)!>!B/(f/g/ | e/)!>!c/(g/f/) (e/d/c/B/) (c/A/)(c/G/) | %65
!mf! .c/!>!^F/(c/d/ .c/)!>!F/(c/d/ .c/)!>!F/(c/d/ |"^E" .B/)(G/B/d/) (B/G/).B/.d/ .B/!>!=F/(B/d/ | %67
 ._B/)!>!E/(B/c/ .B/)!>!E/(B/c/ .B/)!>!E/(B/c/ | .A/)!>!F/(A/c/ .A/)!>!F/(A/c/ .A/)!>!E/(A/c/ | %69
 .=B/)!>!D/(B/f/ .B/)!>!D/(B/f/ .B/)!>!D/(B/f/ | .e/)(C/D/E/ F/G/A/B/ c/d/e/f/) | %71
 .g/e/(c/d/ e/f/g/a/ ._b/)(a/b/g/) | .a/(f/d/e/ f/g/a/=b/ .c'/)(b/c'/a/) | %73
 .b/(g/e/f/ g/a/b/c'/ .d'/)(c'/d'/b/) | .c'/(a/f/g/ a/b/c'/d'/ .e'/)(d'/e'/c'/) | %75
 (b/a/b/).g/ (f/e/f/).d/[Q:1/4=80]"_rall." (B/A/[Q:1/4=70]B/).G/ | %76
[Q:1/4=60] !fermata!b2[Q:1/4=90] z2 z2 | %77
"^F""_a tempo" !tenuto!E/(c'/b/a/) .g/.f/.e/.d/ (c/G/).E/.G/ | c2 z2 z2 |!mp! b2 z2"_cresc." z2 | %80
 c'2 (c'2 b2) | c'2- c'/!>!e/(c'/d'/ c'/)!>!e/(c'/d'/) | _b2- b/!>!e/(b/c'/ b/)!>!e/(b/c'/) | %83
 a2- a/(f/e/f/) .a/(f/e/f/) | (=b2- b/c'/b/c'/ b/c'/b/c'/) |!f!!<(! (Tb6{ab} | %86
 .c')(b/a/) .g/.f/.e/.d/ (c/G/).E/.G/!<)! |!ff! !>!.C2 z2 z2 |] %88

